X:1
T:Alsace, LM
T:Alsace, LM
T:From Beethoven’s Second Symphony, 1802
T:Public Domain Courtesy of the Cyber Hymnal™
C:From Beethoven’s Second Symphony, 1802
Z:Public Domain
Z:Courtesy of the Cyber Hymnal™
%%score ( 1 2 ) ( 3 4 )
L:1/8
M:3/4
K:F
V:1 treble 
V:2 treble 
V:3 bass 
V:4 bass 
V:1
 C2 [CF]2 [CG]2 | A4 [FA]2 | [FA]2 [GB]2 [FA]2 | [EG]6 | [Fc]2 [EB]2 [FA]2 | G4 [CA]2 | %6
 [CE]4 (F>D) | C4 C2 | [DF]2 F2 [CG]2 | (^G2 A2) C2 | [FA]2 [EG]2 [^DA]2 x2 | (A2 B2) [EB]2 | %12
 (B2 c2) [Ed]2 | (d2 G2) [FA]2 | (c3 B) (AG) | F6 |] %16
V:2
 C2 x4 | (C2 F2) x2 | x6 | x6 | x6 | G4 x2 | x4 =B,2 | C4 C2 | x2 F2 x2 | C4 C2 | x8 | E4 x2 | %12
 E4 x2 | E4 x2 | F4 E2 | F6 |] %16
V:3
 [F,A,]2 [A,,F,]2 [C,E,]2 | (F,2 A,2) [F,C]2 | F,2 E,2 [F,C]2 | [C,C]6 | A,2 [G,B,]2 [F,C]2 | %5
 [E,C]4 [^F,A,]2 | G,4 (D,>F,) | [C,E,]4 C,2 | (B,2 A,2) [C,E,]2 | [F,,F,]4 C,2 | C4 B,2 [^F,C]2 | %11
 [G,C]4 [G,C]2 | C4 [B,C]2 | [B,C]4 [A,C]2 | [G,D]4 (CB,) | [F,A,]6 |] %16
V:4
 x6 | F,4 x2 | x6 | x6 | A,2 x4 | x6 | G,4 G,,2 | x4 C,2 | C,4 x2 | x4 C,2 | C2 x6 | x6 | %12
 (G,2 A,2) x2 | x6 | x4 C,2 | x6 |] %16

